X:1552
T:Western Lasses, The
R:reel
N:"collected from Dunlap"
B:"O'Neill's Dance Music of Ireland, 1552"
T: na cailini.de on n-iar.
Z:transcribed by John B. Walsh, walsh@math.ubc.ca 8/23/96
M:C|
L:1/8
K:C
TGF|EGcG AGcG|EGcG EDDG|EGcG AGcG|EGDF ECCG|
EGcG AGcG|EGcG TEDDG|EGAB cdef|gefd ec c2||
e3 e d2 dc|AcGc AcGc|e3 ed2 dc|3ABc GE TEDD2|
efec dedc|3ABc Gc 3ABc Gc|eabag egdc|3ABc GE TED D2||
efge c2 cd|eabag aged|3efg ed TcBcd|eabag 3efg dg|
efge c2 cd|eabag aged|3dfg ed cBcA|3ABc GF ECC2||
